docs/themes/v2/source/images/new/logoslack.svg

<svg fill="none" height="24" viewBox="0 0 24 24" width="24" xmlns="http://www.w3.org/2000/svg"><g clip-rule="evenodd" fill-rule="evenodd"><path d="m2.52 17.6999c1.39181 0 2.52-1.1282 2.52-2.5198v-2.5202h-2.52c-1.39181 0-2.52 1.1282-2.52 2.5202 0 1.3916 1.12819 2.5198 2.52 2.5198zm6.30017-5.04c-1.39181 0-2.52 1.1282-2.52 2.5202v6.3c0 1.3916 1.12819 2.52 2.52 2.52 1.39183 0 2.52003-1.1284 2.52003-2.52v-6.3c0-1.392-1.1282-2.5202-2.52003-2.5202z" fill="#c0205e"/><path d="m6.30017 2.57957c0 1.39181 1.12819 2.52 2.52 2.52h2.52003v-2.52c0-1.39181-1.1282-2.5199997-2.52003-2.5199997-1.39181 0-2.52 1.1281897-2.52 2.5199997zm5.04003 6.30029c0-1.39181-1.1282-2.52-2.52001-2.52h-6.30019c-1.39181 0-2.52 1.12819-2.52 2.52 0 1.39184 1.12819 2.52004 2.52 2.52004h6.30019c1.39181 0 2.52001-1.1282 2.52001-2.52004z" fill="#48abd1"/><path d="m15.1202 11.3998c1.3918 0 2.52-1.1282 2.52-2.52004v-6.30019c0-1.39181-1.1282-2.5199997-2.52-2.5199997s-2.52 1.1281897-2.52 2.5199997v6.30019c0 1.39184 1.1282 2.52004 2.52 2.52004zm6.3001-5.03994c-1.3918 0-2.5202 1.12819-2.5202 2.52v2.52004h2.5202c1.3918 0 2.52-1.1282 2.52-2.52004 0-1.39181-1.1282-2.52-2.52-2.52z" fill="#08a66c"/><path d="m12.6002 15.1801c0 1.3916 1.1282 2.5198 2.52 2.5198h6.3002c1.3918 0 2.52-1.1282 2.52-2.5198 0-1.392-1.1282-2.5202-2.52-2.5202h-6.3002c-1.3918 0-2.52 1.1282-2.52 2.5202zm5.04 6.2998c0-1.3918-1.1282-2.5202-2.52-2.5202h-2.52v2.5202c0 1.3916 1.1282 2.52 2.52 2.52s2.52-1.1284 2.52-2.52z" fill="#e8aa30"/></g></svg>

<svg width="24" height="24" viewBox="0 0 24 24" fill="none" xmlns="http://www.w3.org/2000/svg">
<path fill-rule="evenodd" clip-rule="evenodd" d="M2.52 17.6999C3.91181 17.6999 5.04 16.5717 5.04 15.1801V12.6599H2.52C1.12819 12.6599 0 13.7881 0 15.1801C0 16.5717 1.12819 17.6999 2.52 17.6999ZM8.82017 12.6599C7.42836 12.6599 6.30017 13.7881 6.30017 15.1801V21.4801C6.30017 22.8717 7.42836 24.0001 8.82017 24.0001C10.212 24.0001 11.3402 22.8717 11.3402 21.4801V15.1801C11.3402 13.7881 10.212 12.6599 8.82017 12.6599Z" fill="#C0205E"/>
<path fill-rule="evenodd" clip-rule="evenodd" d="M6.30017 2.57957C6.30017 3.97138 7.42836 5.09957 8.82017 5.09957H11.3402V2.57957C11.3402 1.18776 10.212 0.0595703 8.82017 0.0595703C7.42836 0.0595703 6.30017 1.18776 6.30017 2.57957ZM11.3402 8.87986C11.3402 7.48805 10.212 6.35986 8.82019 6.35986H2.52C1.12819 6.35986 0 7.48805 0 8.87986C0 10.2717 1.12819 11.3999 2.52 11.3999H8.82019C10.212 11.3999 11.3402 10.2717 11.3402 8.87986Z" fill="#48ABD1"/>
<path fill-rule="evenodd" clip-rule="evenodd" d="M15.1202 11.3998C16.512 11.3998 17.6402 10.2716 17.6402 8.87976V2.57957C17.6402 1.18776 16.512 0.0595703 15.1202 0.0595703C13.7284 0.0595703 12.6002 1.18776 12.6002 2.57957V8.87976C12.6002 10.2716 13.7284 11.3998 15.1202 11.3998ZM21.4203 6.35986C20.0285 6.35986 18.9001 7.48805 18.9001 8.87986V11.3999H21.4203C22.8121 11.3999 23.9403 10.2717 23.9403 8.87986C23.9403 7.48805 22.8121 6.35986 21.4203 6.35986Z" fill="#08A66C"/>
<path fill-rule="evenodd" clip-rule="evenodd" d="M12.6002 15.1801C12.6002 16.5717 13.7284 17.6999 15.1202 17.6999H21.4204C22.8122 17.6999 23.9404 16.5717 23.9404 15.1801C23.9404 13.7881 22.8122 12.6599 21.4204 12.6599H15.1202C13.7284 12.6599 12.6002 13.7881 12.6002 15.1801ZM17.6402 21.4799C17.6402 20.0881 16.512 18.9597 15.1202 18.9597H12.6002V21.4799C12.6002 22.8715 13.7284 23.9999 15.1202 23.9999C16.512 23.9999 17.6402 22.8715 17.6402 21.4799Z" fill="#E8AA30"/>
</svg>
